!!!OTL: Am Bodensee
!!!ARE: Europa, Mitteleuropa, Deutschland
!!!SCT: A0485A
!!!YEM: Copyright 1995, estate of Helmut Schaffrath.
**kern
*ICvox
*Ivox
!! Mixed meters:  4/2; 6/2
*M6/2
*k[b-]
*F:
{1f
=1
2f
2g
1a
1dd
=2
*M4/2
2cc
2b-
1g}
=3
{1dd
=4
*M6/2
1cc
2cc
1a
2f
=5
2g
2a
1b-
2r}
{2cc
=6
*M4/2
2b-
2a
2g
2f
=7
*M6/2
1g
1c
2r}
{2c
=8
2f
2g
1a
1dd
=9
2cc
2a
1f
2r}
{2a
=10
2b-
2dd
1cc
2b-
2a
=11
1g
1f}
==
!!!AGN: Romanze, Ballade, Lied
!! Ott, 1534 No. 88.
!!!ONB: ESAC (Essen Associative Code) Database: ALTDEU
!!!AMT: irregular
!!!AIN: vox
!!!EED: Helmut Schaffrath
!!!EEV: 1.0
*-
